!!!!SEGMENT: pl-kk--kk-i-497--001_anonim--pange-lingua.krn
!!!id: 18xx:1336
!!!COM: Anonim
!!!COM-rism: pe30004985
!!!CDT:
!!!CNT:
!!!OTL: Pange lingua
!!!PDT:
!!!SMS-siglum: PL-Kk
!!!SMS-shelfmark: Kk.I.497
!!!NIFC-rismID: 1001137226
!!!URL-scan: http://repozytorium.nifc.pl/skany/pl-kk-nut--i-497
!!!ONB-nifc:
!!!SMS-variant: 10-23
!!!SMS-altvar: 1-7, 26-40
**kern	**text	**kern	**text	**kern	**text	**kern	**text
*part4	*part4	*part3	*part3	*part2	*part2	*part1	*part1
*group1	*	*group1	*	*group1	*	*group1	*
*staff4	*staff4	*staff3	*staff3	*staff2	*staff2	*staff1	*staff1
*I"Baſso	*	*I"Tenore	*	*I"Alto	*	*I"Soprano	*
*I'B	*	*I'T	*	*I'A	*	*I'S	*
*clefF4	*	*clefC4	*	*clefC3	*	*clefC1	*
*k[]	*	*k[]	*	*k[]	*	*k[]	*
*M3/2	*	*M3/2	*	*M3/2	*	*M3/2	*
=1	=1	=1	=1	=1	=1	=1	=1
!LO:TX:a:B:t=1	!	!LO:TX:a:B:t=1	!	!LO:TX:a:B:t=1	!	!LO:TX:a:B:t=1	!
1C	Pan-	1e	Pan-	1g	Pan-	1cc	Pan-
*	*	*2\right	*	*2\right	*	*2\right	*
2C/	-ge	2e\	-ge	2g\	-ge	2cc\	-gel
=2	=2	=2	=2	=2	=2	=2	=2
1G	lin-	1d	lin-	1g	lin-	1b	lin-
*2\right	*	*	*	*	*	*	*
2G\	-qua	2d\	-qua,	2g\	-qua	2b\	-qua
=3	=3	=3	=3	=3	=3	=3	=3
2r	.	2r	.	2r	.	2r	.
2A\	Glo-	2c\	Glo-	2e\	glo-	2cc\	glo-
2E\	-ri-	2B\	-ri-	2e\	-ri-	2g#X\	-ri-
=4	=4	=4	=4	=4	=4	=4	=4
1.F	-o-	1.A	-o-	(2e\	-o-	1.a	-o,-
.	.	.	.	1d)	.	.	.
!LO:LB:g=original	!	!LO:LB:g=original	!	!LO:LB:g=original	!	!LO:LB:g=original	!
=5	=5	=5	=5	=5	=5	=5	=5
2E\	-si	2B\	-si,	2e\	-si,	2g#X\	-si
2E\	Cor-	2B\	Cor-	2e\	Ƈor-	2gn\	Cor-
!	!	!	!	!LO:TX:t=P:problem:późniejsza korekta wysokości	!	!	!
2D\	-po-	2d\	-po-	2e\	-po-	2b\	-po-
=6	=6	=6	=6	=6	=6	=6	=6
2.C/	-ris	(2.e\	-ri-	(2.g\	-ri-	1.cc	-ris
4D/	.	4d\)	.	4f\)	.	.	.
2E\	.	2c\	-s	2e\	-s	.	.
=7	=7	=7	=7	=7	=7	=7	=7
!	!	!	!	!	!	!LO:TX:t=P:problem:późniejsza korekta wysokości	!
2F\	Mys-	2d\	Mys-	2a\	Mys-	2cc\	Mÿs-
2G\	-te-	2.d\	-te-	2.g\	-te-	2cc\	-ter-
2GG/	-ri-	.	.	.	.	2b\	-i-
.	.	4d\	-ri-	4f\	-ri-	.	.
!LO:LB:g=original	!	!LO:LB:g=original	!	!LO:LB:g=original	!	!	!
=8	=8	=8	=8	=8	=8	=8	=8
2C/	-um	2c\	-um,	2e\	-um,	2cc\	-um
2C/	San-	2c\	San-	2g\	San-	2ee\	San-
2c\	-qui-	2c\	-qui-	2g\	-qui-	2ee\	-qui-
!	!	!	!	!	!	!LO:LB:g=original	!
=9	=9	=9	=9	=9	=9	=9	=9
1G#X	-nis-	1B	-nis-	1e	-nis-	1b	-nis
2G#\	-que	2B\	-que	2e\	-que	2b\	que,
=10	=10	=10	=10	=10	=10	=10	=10
!	!	!	!	!	!	!LO:TX:t=P:problem:późniejsza zmiana na pauzę	!
1A	pre-	(2c\	pre-	1e	pre-	(2a\	pre-
!	!	!	!	!	!	!LO:TX:t=P:problem:późniejsza korekta wysokości	!
.	.	2B\)	.	.	.	2b\)	.
2AA/	-ti-	2A\	-ti-	2f#X\	-ƈi-	2cc\	-ti-
=11	=11	=11	=11	=11	=11	=11	=11
!	!	!	!	!LO:N:vis=2	!	!LO:TX:t=P:problem:późniejsza korekta wysokości	!
1E	-o-	1B	-o-	1g#X	-o-	1b	-o-
!	!	!	!	!	!	!LO:TX:t=P:problem:późniejsza korekta wysokości	!
2E\	-si	2B\	-si,	2g#\	-si,	2b\	-si,
!LO:LB:g=original	!	!LO:LB:g=original	!	!LO:LB:g=original	!	!	!
=12	=12	=12	=12	=12	=12	=12	=12
2r	.	2r	.	2r	.	2r	.
2E\	quem	2B\	quem	2e\	quem	2g\	quem
2D\	in	2d\	in	2fn\	in	2b\	in
!	!	!	!	!	!	!LO:LB:g=original	!
=13	=13	=13	=13	=13	=13	=13	=13
1C	mun-	(1G	mun-	(1e	mun-	(1cc	mun-
!	!	!	!	!	!	!LO:TX:t=P:problem:późniejsza zmiana rytmu	!
[<2F\	-di	2A/)	.	2f\)	.	2dd\)	.
=14	=14	=14	=14	=14	=14	=14	=14
2F\]	.	2A\	-di	2d\	-di	2dd\	-ti
!	!	!	!	!	!	!LO:TX:t=P:problem:późniejsza korekta wysokości	!
2.E\	pre-	2.A/	pre-	2.e\	pre-	2.b\	pie-
!	!	!	!	!	!	!LO:TX:t=P:problem:późniejsza korekta wysokości	!
4E\	-ti-	4G#X/	-ti-	4e\	-ti-	4b\	-ti-
!LO:LB:g=original	!	!LO:LB:g=original	!	!	!	!	!
=15	=15	=15	=15	=15	=15	=15	=15
2AA/	-um,	2A\	-um,	2e\	-um,	2a\	-um,
2A\	fruc-	2A\	fruc-	2e\	Fruc-	2cc\	fruƈ-
2G#X\	-tus	2B\	-tus	2e\	-tus	2b\	-tus
!	!	!	!	!LO:LB:g=original	!	!	!
=16	=16	=16	=16	=16	=16	=16	=16
1A	ven-	1c	ven-	1e	ven-	1a	ven-
2E\	-tris	2B\	-tris	2e\	-tris,	2g#X\	-tris
!	!	!	!	!	!	!LO:LB:g=original	!
=17	=17	=17	=17	=17	=17	=17	=17
2r	.	2r	.	2r	.	2r	.
2A\	fruc-	2c\	fruc-	2e\	Fruc-	2a\	fruƈ-
2G#X\	-tus	2B\	-tus	2e\	-tus	2b\	-tus
=18	=18	=18	=18	=18	=18	=18	=18
1A	ven-	1c	ven-	1e	ven-	1a	ven-
2E\	-tris	2B\	-tris	2e\	-tris,	2g#X\	-tris,
!LO:LB:g=original	!	!LO:LB:g=original	!	!	!	!	!
=19	=19	=19	=19	=19	=19	=19	=19
2r	.	1A	ge-	2r	.	2r	.
2F\	ge-	.	.	2c\	ge-	2a\	ge-
2D\	-ne-	2G/	-ne-	2f\	-ne-	2b\	-ne-
!	!	!	!	!LO:LB:g=original	!	!	!
=20	=20	=20	=20	=20	=20	=20	=20
1C	-ro-	1G	-ro-	1e	-ro-	1cc	-ro-
2C/	-si,	2G/	-si	2e\	-si	2cc\	-si,
!	!	!	!	!	!	!LO:LB:g=original	!
=21	=21	=21	=21	=21	=21	=21	=21
2r	.	2r	.	2r	.	2r	.
2AA/	Rex	2A/	Rex	2e\	Rex	2cc\	Rex
2BB/	ef-	2G/	ef-	2g\	ef-	2dd\	of-
=22	=22	=22	=22	=22	=22	=22	=22
1C	-fu-	1c	-fu-	1g	-fu-	1ee	-fu-
2BB/	-dit	2G/	-dit	2g\	-dit	[<2dd\	-dit
!LO:LB:g=original	!	!LO:LB:g=original	!	!	!	!	!
=23	=23	=23	=23	=23	=23	=23	=23
!LO:TX:t=P:problem:wysokość nuty poprawiana, nad nutą litera h	!	!	!	!	!	!	!
2C/	gen-	1G	gen-	1d	gen-	2dd\]	.
2.D/	-ti-	.	.	.	.	2.a\	gen-
.	.	2F#X/	-ti-	2d\	-ti-	.	.
4D/	.	.	.	.	.	4a\	-ti-
!	!	!	!	!LO:LB:g=original	!	!LO:LB:g=original	!
=24	=24	=24	=24	=24	=24	=24	=24
2GG/	-um,	2G/	-um	2d\	-um	2b\	-um
!	!	!LO:TX:t=P:problem:późniejsza korekta wysokości	!	!	!	!	!
2E\	Rex	2A/	Rex	2r	.	2cc\	Rex
!	!	!LO:TX:t=P:problem:późniejsza korekta wysokości	!	!	!	!	!
2F\	ef-	2G/	ef-	2r	.	2cc\	of-
=25	=25	=25	=25	=25	=25	=25	=25
1G	-fu-	1G	-fu-	2r	.	2b\	-fu-
.	.	.	.	2d\	Rex	2dd\	-dit
2C/	-dit	2G/	-dit	2e\	ef-	2cc\	of-
=26	=26	=26	=26	=26	=26	=26	=26
1.GG	gen-	[1G	gen-	1d	-fu-	1b	-fu-
.	.	2G/]	.	2e\	-dit	[<2cc\	-dit
!LO:LB:g=original	!	!LO:LB:g=original	!	!	!	!LO:LB:g=original	!
=27	=27	=27	=27	=27	=27	=27	=27
1GG	.	1.G	-ti-	(2e\	gen-	2cc\]	.
.	.	.	.	2d\)	.	2.cc\	gen-
2GG/	-ti-	.	.	2d\	-ti-	.	.
.	.	.	.	.	.	4b\	-ti-
!	!	!	!	!LO:LB:g=original	!	!	!
=28	=28	=28	=28	=28	=28	=28	=28
1.C	-um.	1.G	-um.	1.e	-um.	1.cc	-um.
!LO:PB:g=original	!	!LO:PB:g=original	!	!LO:PB:g=original	!	!LO:PB:g=original	!
=29||	=29||	=29||	=29||	=29||	=29||	=29||	=29||
!LO:TX:a:B:t=2	!	!LO:TX:a:B:t=2	!	!LO:TX:a:B:t=2	!	!LO:TX:a:B:t=2	!
!LO:N:vis=2	!	!	!	!	!	!	!
1C	No-	1e	No-	1g	No-	1cc	No-
2C/	-bis	2e\	-bis	2g\	-bis	2cc\	-bis
=30	=30	=30	=30	=30	=30	=30	=30
1G	da-	1d	da-	1g	da-	1b	Da-
2G\	-tus	2d\	-tus	2g\	-tus,	2b\	-tus,
=31	=31	=31	=31	=31	=31	=31	=31
2r	.	2r	.	2r	.	2r	.
2A\	No-	2c\	no-	2e\	No-	2cc\	No-
2E\	-bis	2B\	-bis	2e\	-bis	2g#X\	-bis
=32	=32	=32	=32	=32	=32	=32	=32
1.F	na-	1.A	na-	(2e\	na-	1.a	na-
.	.	.	.	1d)	.	.	.
=33	=33	=33	=33	=33	=33	=33	=33
2E\	-tus	2B\	-tus	2e\	-tus	2g#X\	-tus
2E\	ex	2B\	ex	2e\	ex	2gn\	ex
!	!	!	!	!LO:TX:t=P:problem:późniejsza korekta wysokości	!	!	!
2E\	in-	2d\	in-	2e\	in-	2b\	in-
!LO:LB:g=original	!	!LO:LB:g=original	!	!LO:LB:g=original	!	!LO:LB:g=original	!
=34	=34	=34	=34	=34	=34	=34	=34
2.C/	-taƈ-	(2.e\	-taƈ-	(2.g\	-taƈ-	1.cc	-tac-
4D/	.	4d\)	.	4f\)	.	.	.
2E\	-ta	2c\	-ta	2e\	-ta	.	.
=35	=35	=35	=35	=35	=35	=35	=35
!	!	!	!	!	!	!LO:TX:t=P:problem:późniejsza korekta wysokości	!
2F\	Vir-	2d\	Vir-	2a\	Vir-	2cc\	-ta
2G\	.	2.d\	-gi-	2.g\	-gi-	2cc\	Vir-
2GG/	-gi-	.	.	.	.	2b\	-gi-
.	.	4d\	.	4f\	.	.	.
=36	=36	=36	=36	=36	=36	=36	=36
2C/	-ne	2c\	-ne	2e\	-ne,	2cc\	-ni
2C/	et	2c\	et	2g\	et	2ee\	et
2c\	in	2c\	in	2g\	in	2ee\	in
=37	=37	=37	=37	=37	=37	=37	=37
1G#X	mun-	1B	mun-	1e	mun-	1b	mun-
2G#\	-do	2B\	-do	2e\	-do	2b\	-do
!	!	!LO:LB:g=original	!	!	!	!	!
=38	=38	=38	=38	=38	=38	=38	=38
!	!	!	!	!	!	!LO:TX:t=P:problem:późniejsza zmiana na pauzę	!
1A	Con-	(2c\	Con-	1e	Con-	(2a\	Con-
!	!	!	!	!	!	!LO:TX:t=P:problem:późniejsza korekta wysokości	!
.	.	2B\)	.	.	.	2b\)	.
2AA/	-ver-	2A\	-ver-	2f#X\	-ver-	2cc\	-ver-
!LO:LB:g=original	!	!	!	!LO:LB:g=original	!	!LO:LB:g=original	!
=39	=39	=39	=39	=39	=39	=39	=39
!	!	!	!	!	!	!LO:TX:t=P:problem:późniejsza korekta wysokości	!
1E	-sa-	1B	-sa-	1g#X	-sa-	1b	-sa-
2E\	-tus,	2B\	-tus	2g#\	-tus	2b\	-tus
=40	=40	=40	=40	=40	=40	=40	=40
2r	.	2r	.	2r	.	2r	.
2E\	Spar-	2B\	spar-	2e\	Spar-	2g\	spar-
2D\	-so	2d\	-so	2fn\	-so	2b\	-so
=41	=41	=41	=41	=41	=41	=41	=41
!	!	!LO:N:vis=2	!	!	!	!	!
1C	ver-	(1G	ser-	(1e	ver-	(1cc	ver-
[<2F\	-bi	2A/)	.	2f\)	.	2dd\)	.
=42	=42	=42	=42	=42	=42	=42	=42
2F\]	.	2A/	-bi	2d\	-bi	2dd\	-bi
2.E\	se-	2.A/	se-	2.e\	se-	2.b\	So-
4E\	-mi-	4G#X/	-mi-	4e\	-mi-	4b\	-mi-
!	!	!LO:LB:g=original	!	!	!	!	!
=43	=43	=43	=43	=43	=43	=43	=43
2AA/	-ne,	2A\	-ne,	2e\	-ne,	2a\	-ne
2A\	su-	2A\	su-	2e\	su-	2cc\	Su-
2G#X\	-i	2B\	-i	2e\	-i	2b\	-i
!LO:LB:g=original	!	!	!	!LO:LB:g=original	!	!LO:LB:g=original	!
=44	=44	=44	=44	=44	=44	=44	=44
1A	mo-	1c	mo-	1e	mo-	1a	mo-
2E\	-ras,	2B\	-ras	2e\	-ras,	2g#X\	-ras
=45	=45	=45	=45	=45	=45	=45	=45
2r	.	2r	.	2r	.	2r	.
2A\	su-	2c\	su-	2e\	su-	2a\	Su-
2G#X\	-i	2B\	-i	2e\	-i	2b\	-i
=46	=46	=46	=46	=46	=46	=46	=46
1A	mo-	1c	mo-	1e	mo-	1a	mo-
2E\	-ras	2B\	-ras,	2e\	-ras,	2g#X\	-ras
=47	=47	=47	=47	=47	=47	=47	=47
2r	.	1A	in	2r	.	2r	.
2F\	in	.	.	2c\	in	2a\	in
2D\	Col-	2G/	Ƈol-	2f\	Co-	2b\	col-
=48	=48	=48	=48	=48	=48	=48	=48
!	!	!	!	!	!	!LO:N:vis=2	!
1C	-la-	1G	-la-	1e	-la-	1cc	-la-
2C/	-tus	2G/	-tus	2e\	-tus	2cc\	-tus,
!LO:LB:g=original	!	!	!	!LO:LB:g=original	!	!LO:LB:g=original	!
=49	=49	=49	=49	=49	=49	=49	=49
2r	.	2r	.	2r	.	2r	.
2AA/	mi-	2A/	mi-	2e\	mi-	2cc\	mi-
2BB/	-ro	2G/	-ro	2g\	-ro	2dd\	-ro
=50	=50	=50	=50	=50	=50	=50	=50
1C	Clau-	1c	Clau-	1g	Clau-	1ee	Ƈla-
2BB/	-sit	2G/	-sit	2g\	-sit	[<2dd\	-u-
=51	=51	=51	=51	=51	=51	=51	=51
2BB/	or-	1G	or-	1d	or-	2dd\]	-sit
2.D/	-di-	.	.	.	.	2.a\	or-
.	.	2F#X/	-di-	2d\	-di-	.	.
4D/	.	.	.	.	.	4a\	-di-
=52	=52	=52	=52	=52	=52	=52	=52
2GG/	-ne	2G/	-ne	2d\	-ne,	2b\	-no
!	!	!LO:TX:t=P:problem:późniejsza korekta wysokości	!	!	!	!	!
2E\	mi-	2A/	mi-	2r	.	2cc\	mi-
!	!	!LO:TX:t=P:problem:późniejsza korekta wysokości	!	!	!	!	!
2F\	-ro	2G/	-ro	2r	.	2cc\	-ro
!	!	!LO:LB:g=original	!	!	!	!LO:LB:g=original	!
=53	=53	=53	=53	=53	=53	=53	=53
1G	Clau-	1G	clau-	2r	.	2b\	Cla-
.	.	.	.	2d\	mi-	2dd\	-u-
2C/	-sit	2G/	-sit	2e\	-ro	2cc\	-sit
!LO:LB:g=original	!	!	!	!LO:LB:g=original	!	!	!
=54	=54	=54	=54	=54	=54	=54	=54
1.GG	or-	[1G	or-	1d	clau-	1b	Cla-
.	.	2G/]	.	2e\	-sit	[<2cc\	-u-
=55	=55	=55	=55	=55	=55	=55	=55
1GG	.	1.G	-di-	(2e\	or-	2cc\]	-sit
.	.	.	.	2d\)	.	2.cc\	or-
2GG/	-di-	.	.	2d\	-di-	.	.
.	.	.	.	.	.	4b\	-di-
=56	=56	=56	=56	=56	=56	=56	=56
1.C	-ne.	1.G	-ne.	1.e	-ne.	1.cc	-ne.
!LO:LB:g=original	!	!LO:LB:g=original	!	!LO:LB:g=original	!	!LO:LB:g=original	!
=57||	=57||	=57||	=57||	=57||	=57||	=57||	=57||
!LO:TX:a:B:t=3	!	!LO:TX:a:B:t=3	!	!LO:TX:a:B:t=3	!	!LO:TX:a:B:t=3	!
1C	In	1e	In	1g	In	1cc	In
2C/	su-	2e\	sup-	2g\	sup-	2cc\	Sup-
=58	=58	=58	=58	=58	=58	=58	=58
1G	-pre-	1d	-pre-	1g	-pre-	1b	-pre-
2G\	-me,	2d\	-me,	2g\	-me,	2b\	-me
=59	=59	=59	=59	=59	=59	=59	=59
2r	.	2r	.	2r	.	2r	.
2A\	noc-	2c\	noc-	2e\	noƈ-	2cc\	Noƈ-
2E\	-te	2B\	-te	2e\	-te	2g#X\	-to
=60	=60	=60	=60	=60	=60	=60	=60
1.F	Cae-	1.A	Ƈae-	(2e\	Ƈe-	1.a	Ca-
.	.	.	.	1d)	.	.	.
=61	=61	=61	=61	=61	=61	=61	=61
2E\	-ne	2B\	-ne,	2e\	-ne	2g#X\	-ne
2E\	Re-	2B\	Re-	2e\	Re-	2gn\	Re-
!	!	!	!	!LO:TX:t=P:problem:późniejsza korekta wysokości	!	!	!
2E\	-ƈam-	2d\	-ƈam-	2e\	-ƈum-	2b\	-ƈum-
!LO:LB:g=original	!	!LO:LB:g=original	!	!LO:LB:g=original	!	!LO:LB:g=original	!
=62	=62	=62	=62	=62	=62	=62	=62
2.C/	-pens	(2.e\	-pens	(2.g\	-pens	1.cc	-pens
4D/	.	4d\)	.	4f\)	.	.	.
2E\	Cum	2c\	Cum	2e\	.	.	.
=63	=63	=63	=63	=63	=63	=63	=63
2F\	fra-	2d\	fra-	2a\	Com	2cc\	cum
2G\	-tri-	2.d\	-tri-	2.g\	Fra-	2cc\	fra-
2GG/	-bus	.	.	.	.	2b\	-tri-
.	.	4d\	.	4f\	-tri-	.	.
=64	=64	=64	=64	=64	=64	=64	=64
2C/	ob-	2c\	-bus	2e\	-bus	2cc\	-bus
2C/	-ser-	2c\	ob-	2g\	ob-	2ee\	ob-
2c\	-va-	2c\	-ser-	2g\	-ser-	2ee\	-ser-
=65	=65	=65	=65	=65	=65	=65	=65
1G#X	-ta	1B	-va-	1e	-va-	1b	-va-
2G#\	le-	2B\	-ta	2e\	-ta	2b\	-ta
!	!	!LO:LB:g=original	!	!	!	!	!
=66	=66	=66	=66	=66	=66	=66	=66
1A	-ge	(2c\	le-	1e	le-	(2a\	le-
.	.	2B\)	.	.	.	2b\)	.
2AA/	.	2A\	-ge	2f#X\	-ge	2cc\	-ge
!LO:LB:g=original	!	!	!	!LO:LB:g=original	!	!LO:LB:g=original	!
=67	=67	=67	=67	=67	=67	=67	=67
1E	ple-	1B	ple-	1g#X	ple-	1b	Pla-
2E\	-ne	2B\	-ne,	2g#\	-ne	2b\	-ne
=68	=68	=68	=68	=68	=68	=68	=68
2r	.	2r	.	2r	.	2r	.
2E\	Ci-	2B\	Ci-	2e\	Ci-	2g\	Ci-
2D\	-bus	2d\	-bis	2fn\	-bis	2b\	-bis
=69	=69	=69	=69	=69	=69	=69	=69
1C	in	(1G	in	(1e	in	(1cc	in
[<2F\	le-	2A/)	.	2f\)	.	2dd\)	.
=70	=70	=70	=70	=70	=70	=70	=70
2F\]	.	2A/	le-	2d\	le-	2dd\	le-
2.E\	-ga-	2.A/	-ga-	2.e\	-ga-	2.b\	-ga-
4E\	-li-	4G#X/	-li-	4e\	-li-	4b\	-li-
!	!	!LO:LB:g=original	!	!	!	!	!
=71	=71	=71	=71	=71	=71	=71	=71
2AA/	-bus	2A\	-bus,	2e\	-bus	2a\	-bus
2A\	Ci-	2A\	Ci-	2e\	Ci-	2cc\	Ci-
2G#X\	-bum	2B\	-bum	2e\	-bum	2b\	-bum
!LO:LB:g=original	!	!	!	!LO:LB:g=original	!	!LO:LB:g=original	!
=72	=72	=72	=72	=72	=72	=72	=72
1A	tur-	1c	tur-	1e	tur-	1a	Tur-
2E\	-bae,	2B\	-ba	2e\	-ba,	2g#X\	-be
=73	=73	=73	=73	=73	=73	=73	=73
2r	.	2r	.	2r	.	2r	.
2A\	Ci-	2c\	Ci-	2e\	Ci-	2a\	Ci-
2G#X\	-bum	2B\	-bum	2e\	-bum	2b\	-bum
=74	=74	=74	=74	=74	=74	=74	=74
1A	tur-	1c	tur-	1e	tur-	1a	tur-
2E\	-bae	2B\	-bae,	2e\	-bae,	2g#X\	-bae,
=75	=75	=75	=75	=75	=75	=75	=75
2r	.	1A	tu-	2r	.	2r	.
2F\	tu-	.	.	2c\	tu-	2a\	tu-
2D\	-o	2G/	-o	2f\	-o	2b\	-o-
!	!	!LO:LB:g=original	!	!	!	!	!
=76	=76	=76	=76	=76	=76	=76	=76
1C	de-	1G	de-	1e	de-	1cc	-de-
2C/	-ne	2G/	-ne,	2e\	-ne	2cc\	-ne,
!LO:LB:g=original	!	!	!	!LO:LB:g=original	!	!LO:LB:g=original	!
=77	=77	=77	=77	=77	=77	=77	=77
2r	.	2r	.	2r	.	2r	.
2AA/	se-	2A/	se-	2e\	se-	2cc\	so-
2BB/	-dat	2G/	-dat	2g\	-dat	2dd\	-dat
=78	=78	=78	=78	=78	=78	=78	=78
1C	su-	1c	su-	1g	su-	1ee	su-
2BB/	-is	2G/	-is	2g\	-is	[<2dd\	.
=79	=79	=79	=79	=79	=79	=79	=79
2BB/	ma-	1G	ma-	1d	ma-	2dd\]	-is
2.D/	-ni-	.	.	.	.	2.a\	ma-
.	.	2F#X/	-ni-	2d\	-ni-	.	.
4D/	.	.	.	.	.	4a\	-ni-
=80	=80	=80	=80	=80	=80	=80	=80
2GG/	-bus	2G/	-bus	2d\	-bus	2b\	-bus
!	!	!LO:TX:t=P:problem:późniejsza korekta wysokości	!	!	!	!	!
2E\	se-	2A/	se-	2r	.	2cc\	se-
!	!	!LO:TX:t=P:problem:późniejsza korekta wysokości	!	!	!	!	!
2F\	-dat	2G/	-dat	2r	.	2cc\	-dat
!LO:LB:g=original	!	!LO:LB:g=original	!	!	!	!LO:LB:g=original	!
=81	=81	=81	=81	=81	=81	=81	=81
1G	su-	1G	su-	2r	.	2b\	su-
.	.	.	.	2d\	se-	2dd\	.
2C/	-is	2G/	-is	2e\	-dat	2cc\	-is
!	!	!	!	!LO:LB:g=original	!	!	!
=82	=82	=82	=82	=82	=82	=82	=82
1.GG	ma-	[1G	ma-	1d	Fi-	1b	su-
.	.	2G/]	.	2e\	-des	[<2cc\	.
=83	=83	=83	=83	=83	=83	=83	=83
1GG	.	1.G	-ni-	(2e\	suf-	2cc\]	-is
.	.	.	.	2d\)	.	2.cc\	ma-
2GG/	-ni-	.	.	2d\	-fi-	.	.
.	.	.	.	.	.	4b\	-ni-
=84	=84	=84	=84	=84	=84	=84	=84
1.C	-bus.	1.G	-bus.	1.e	-ƈit.	1.cc	-bus.
!LO:PB:g=original	!	!LO:PB:g=original	!	!LO:PB:g=original	!	!LO:PB:g=original	!
=85||	=85||	=85||	=85||	=85||	=85||	=85||	=85||
!LO:TX:a:B:t=4	!	!LO:TX:a:B:t=4	!	!LO:TX:a:B:t=4	!	!LO:TX:a:B:t=4	!
1C	Ver-	1e	Ver-	1g	Ver-	1cc	Ver-
2C/	-bus	2e\	-bum	2g\	-bum	2cc\	-bum
=86	=86	=86	=86	=86	=86	=86	=86
1G	Ca-	1d	Ca-	1g	Ca-	1b	Ca-
2G\	-ra	2d\	-ro	2g\	-ro,	2b\	-ro.
=87	=87	=87	=87	=87	=87	=87	=87
2r	.	2r	.	2r	.	2r	.
2A\	pa-	2c\	Pa-	2e\	Pa-	2cc\	Pa-
2E\	-nem	2B\	-nem	2e\	-nem	2g#X\	-nem
=88	=88	=88	=88	=88	=88	=88	=88
1.F	ve-	1.A	ve-	(2e\	ve-	1.a	ver-
.	.	.	.	1d)	.	.	.
=89	=89	=89	=89	=89	=89	=89	=89
2E\	-rum	2B\	-rum	2e\	-rum	2g#X\	-bum
2E\	Ver-	2B\	ver-	2e\	ver-	2gn\	Ver-
2D\	-bo	2d\	-bo	2e\	-bo	2b\	-bo
!LO:LB:g=original	!	!LO:LB:g=original	!	!LO:LB:g=original	!	!LO:LB:g=original	!
=90	=90	=90	=90	=90	=90	=90	=90
2.C/	Car-	(2.e\	Car-	(2.g\	Ƈar-	1.cc	Car-
4D/	.	4d\)	.	4f\)	.	.	.
2E\	-nem	2c\	-nem	2e\	.	.	.
=91	=91	=91	=91	=91	=91	=91	=91
2F\	.	2d\	ef-	2a\	-nem	2cc\	-nem
2G\	ef-	2.d\	-fi-	2.g\	ef-	2cc\	ef-
2GG/	-fi-	.	.	.	.	2b\	-fi-
.	.	4d\	.	4f\	-fi-	.	.
=92	=92	=92	=92	=92	=92	=92	=92
2C/	-ƈit	2c\	-cit	2e\	-ƈit	2cc\	-ƈit
2C/	fit-	2c\	fil-	2g\	fit-	2ee\	fit-
2c\	-que	2c\	-que	2g\	-que	2ee\	-que
=93	=93	=93	=93	=93	=93	=93	=93
1G#X	San-	1B	San-	1e	San-	1b	san-
2G#\	-quis	2B\	-quis	2e\	-quis	2b\	-quis
=94	=94	=94	=94	=94	=94	=94	=94
1A	Chris-	(2c\	Chris-	1e	Chri-	(2a\	Chris-
.	.	2B\)	.	.	.	2b\)	.
2AA/	-ti	2A\	-ti	2f#X\	-sti	2cc\	-ti
!LO:LB:g=original	!	!LO:LB:g=original	!	!LO:LB:g=original	!	!LO:LB:g=original	!
=95	=95	=95	=95	=95	=95	=95	=95
1E	me-	1B	me-	1g#X	me-	1b	me-
2E\	-rum	2B\	-rum,	2g#\	-rum,	2b\	-rum
=96	=96	=96	=96	=96	=96	=96	=96
2r	.	2r	.	2r	.	2r	.
2E\	et	2B\	et	2e\	et	2g\	et
2D\	si-	2d\	si-	2fn\	si-	2b\	si-
=97	=97	=97	=97	=97	=97	=97	=97
1C	-sen-	(1G	-sen-	(1e	-sen-	(1cc	-sen-
[<2F\	-sus	2A/)	.	2f\)	.	2dd\)	.
=98	=98	=98	=98	=98	=98	=98	=98
2F\]	.	2A/	-sus	2d\	-sus	2dd\	-sus
2.E\	de-	2.A/	de-	2.e\	def-	2.b\	de-
4E\	-fi-	4G#X/	-fi-	4e\	-fi-	4b\	-fi-
!LO:LB:g=original	!	!	!	!LO:LB:g=original	!	!	!
=99	=99	=99	=99	=99	=99	=99	=99
2AA/	-cit	2A\	-ƈit	2e\	-ƈit	2a\	-cit
2A\	ad	2A\	ad	2e\	ad	2cc\	ad
2G#X\	fir-	2B\	fir-	2e\	fir-	2b\	fir-
!	!	!LO:LB:g=original	!	!	!	!LO:LB:g=original	!
=100	=100	=100	=100	=100	=100	=100	=100
1A	-man-	1c	-man-	1e	-man-	1a	-man-
2E\	-tum	2B\	-tum	2e\	-tum,	2g#X\	-dum
=101	=101	=101	=101	=101	=101	=101	=101
2r	.	2r	.	2r	.	2r	.
2A\	ad	2c\	ad	2e\	ad	2a\	ad
2G#X\	fir-	2B\	fir-	2e\	fir-	2b\	fir-
=102	=102	=102	=102	=102	=102	=102	=102
!LO:N:vis=2	!	!	!	!	!	!LO:N:vis=2	!
1A	-man-	1c	-man-	1e	-man-	1a	-man-
2E\	-dum	2B\	-tum,	2e\	-tum,	2g#X\	-tum
=103	=103	=103	=103	=103	=103	=103	=103
2r	.	1A	Cors	2r	.	2r	.
2F\	Cors	.	.	2c\	Cors	2a\	Cors
2D\	in	2G/	in	2f\	in	2b\	in
!LO:LB:g=original	!	!	!	!LO:LB:g=original	!	!	!
=104	=104	=104	=104	=104	=104	=104	=104
1C	Cae-	1G	ce-	1e	Ce-	1cc	Ƈe-
2C/	-rum,	2G/	-num	2e\	-rum,	2cc\	-rum
!	!	!LO:LB:g=original	!	!	!	!LO:LB:g=original	!
=105	=105	=105	=105	=105	=105	=105	=105
2r	.	2r	.	2r	.	2r	.
2AA/	so-	2A/	So-	2e\	so-	2cc\	so-
2BB/	-la	2G/	-la	2g\	-la	2dd\	-la
=106	=106	=106	=106	=106	=106	=106	=106
1C	fi-	1c	fi-	1g	Fi-	1ee	fi-
2BB/	-des	2G/	-des	2g\	-des	[<2dd\	.
=107	=107	=107	=107	=107	=107	=107	=107
2BB/	suf-	1G	suf-	1d	suf-	2dd\]	-des
2.D/	-fi-	.	.	.	.	2.a\	of-
.	.	2F#X/	-fi-	2d\	-fi-	.	.
4D/	.	.	.	.	.	4a\	-fi-
!LO:LB:g=original	!	!	!	!	!	!	!
=108	=108	=108	=108	=108	=108	=108	=108
2GG/	-cit	2G/	-ƈit	2d\	-ƈit.	2b\	-tit
!	!	!LO:TX:t=P:problem:późniejsza korekta wysokości	!	!	!	!	!
2E\	so-	2A/	so-	2r	.	2cc\	so-
!	!	!LO:TX:t=P:problem:późniejsza korekta wysokości	!	!	!	!	!
2F\	-la	2G/	-la	2r	.	2cc\	-la
!	!	!	!	!LO:LB:g=original	!	!LO:LB:g=original	!
=109	=109	=109	=109	=109	=109	=109	=109
1G	fi-	1G	fi-	2r	.	2b\	fi-
.	.	.	.	2d\	sen-	2dd\	-des
2C/	-des	2G/	-des	2e\	-su-	2b\	.
!	!	!LO:LB:g=original	!	!	!	!	!
=110	=110	=110	=110	=110	=110	=110	=110
1.GG	suf-	[1G	suf-	1d	-um	1b	fi-
.	.	2G/]	.	2e\	de-	[<2cc\	.
=111	=111	=111	=111	=111	=111	=111	=111
1GG	.	1.G	-fi-	(2e\	-feƈ-	2cc\]	-des
.	.	.	.	2d\)	.	2.cc\	Suf-
2GG/	-fi-	.	.	2d\	-tu-	.	.
.	.	.	.	.	.	4b\	-fi-
=112	=112	=112	=112	=112	=112	=112	=112
1.C	-cit.	1.G	-cit	1.e	-i.	1.cc	-cit.
!LO:LB:g=original	!	!LO:LB:g=original	!	!LO:LB:g=original	!	!LO:LB:g=original	!
=113||	=113||	=113||	=113||	=113||	=113||	=113||	=113||
!LO:TX:a:B:t=5	!	!LO:TX:a:B:t=5	!	!LO:TX:a:B:t=5	!	!LO:TX:a:B:t=5	!
1C	Tan-	1e	Tan-	1g	Tan-	1cc	Tan-
2C/	-tum	2e\	-tum	2g\	-tum	2cc\	-tum
=114	=114	=114	=114	=114	=114	=114	=114
1G	Er-	1d	Er-	1g	Er-	1b	Er-
2G\	-go	2d\	-go	2g\	-go	2b\	-go
=115	=115	=115	=115	=115	=115	=115	=115
2r	.	2r	.	2r	.	2r	.
2A\	Sa-	2c\	Sa-	2e\	Sa-	2cc\	Sa-
2E\	-ƈra-	2B\	-cra-	2e\	-ƈra-	2g#X\	-ƈra-
=116	=116	=116	=116	=116	=116	=116	=116
1.F	-men-	1.A	-men-	(2e\	-men-	1.a	-men-
.	.	.	.	1d)	.	.	.
=117	=117	=117	=117	=117	=117	=117	=117
2E\	-tum	2B\	-tum,	2e\	-tum	2g#X\	-tum
2E\	ve-	2B\	ve-	2e\	ve-	2gn\	Ve-
!	!	!	!	!LO:TX:t=P:problem:późniejsza korekta wysokości	!	!	!
2D\	-ne-	2d\	-ne-	2e\	-ne-	2b\	-ne-
!LO:LB:g=original	!	!LO:LB:g=original	!	!LO:LB:g=original	!	!LO:LB:g=original	!
=118	=118	=118	=118	=118	=118	=118	=118
2.C/	-re-	(2.e\	-re-	(2.g\	-re-	1.cc	-re-
4D/	.	4d\)	.	4f\)	.	.	.
2E\	-mur	2c\	-mur	2e\	-mur	.	.
=119	=119	=119	=119	=119	=119	=119	=119
2F\	Caer-	2d\	.	2a\	cer-	2cc\	-mur
2G\	-nu-	2.d\	Cor-	2.g\	.	2cc\	Cor-
2GG/	-i	.	.	.	.	2b\	-nu-
.	.	4d\	-nu-	4f\	-nu-	.	.
=120	=120	=120	=120	=120	=120	=120	=120
2C/	et	2c\	-i	2e\	-i	2cc\	-i
2C/	an-	2c\	et	2g\	et	2ee\	et
2c\	-ti-	2c\	an-	2g\	an-	2ee\	an-
=121	=121	=121	=121	=121	=121	=121	=121
1G#X	-gum	1B	-ti-	1e	-ti-	1b	-tio-
2G#\	Do-	2B\	-qum	2e\	-qum	2b\	-um
=122	=122	=122	=122	=122	=122	=122	=122
1A	.	(2c\	do-	1e	Do-	(2a\	do-
.	.	2B\)	.	.	.	2b\)	.
2AA/	-cu-	2A\	-cu-	2f#X\	-cu-	2cc\	-ƈu-
!LO:LB:g=original	!	!LO:LB:g=original	!	!LO:LB:g=original	!	!LO:LB:g=original	!
=123	=123	=123	=123	=123	=123	=123	=123
1E	-men-	1B	-men-	1g#X	-men-	1b	-men-
2E\	-tum	2B\	-tum	2g#\	-tum	2b\	-dum
=124	=124	=124	=124	=124	=124	=124	=124
2r	.	2r	.	2r	.	2r	.
2E\	No-	2B\	No-	2e\	No-	2g\	No-
2D\	-vo	2d\	-va	2fn\	-vo	2b\	-vo
=125	=125	=125	=125	=125	=125	=125	=125
!	!	!	!	!	!	!LO:N:vis=2	!
1C	ƈe-	1G	ce-	(1e	ƈa-	(1cc	ƈe-
[<2F\	-dat	2A/	-dat	2f\)	.	2dd\)	.
=126	=126	=126	=126	=126	=126	=126	=126
2F\]	.	2A/	rit-	2d\	-dat	2dd\	-dat
2.E\	rit-	2.A/	-tu-	2.e\	rit-	2.b\	rit-
4E\	-tu-	4G#X/	.	4e\	-tu-	4b\	-tu-
!LO:LB:g=original	!	!	!	!LO:LB:g=original	!	!	!
=127	=127	=127	=127	=127	=127	=127	=127
2AA/	-i,	2A\	-i,	2e\	-i.	2a\	-i
2A\	Praes-	2A\	Praes-	2e\	Praes-	2cc\	Praes-
2G#X\	-tet	2B\	-tet	2e\	-tet	2b\	-tet
!	!	!LO:LB:g=original	!	!	!	!LO:LB:g=original	!
=128	=128	=128	=128	=128	=128	=128	=128
1A	fi-	1c	fi-	1e	fi-	1a	fi-
2E\	-des,	2B\	-des	2e\	-des,	2g#X\	-des
=129	=129	=129	=129	=129	=129	=129	=129
2r	.	2r	.	2r	.	2r	.
2A\	Praes-	2c\	Praes-	2e\	Praes-	2a\	Praes-
2G#X\	-tet	2B\	-tet	2e\	-tet	2b\	-tet
=130	=130	=130	=130	=130	=130	=130	=130
1A	fi-	1c	fi-	1e	fi-	1a	fi-
2E\	-des	2B\	-des,	2e\	-des	2g#X\	-des
=131	=131	=131	=131	=131	=131	=131	=131
2r	.	1A	Sup-	2r	.	2r	.
2F\	sup-	.	.	2c\	sup-	2a\	Sup-
2D\	-ple-	2G/	-ple-	2f\	-ple-	2b\	-ple-
!LO:LB:g=original	!	!	!	!LO:LB:g=original	!	!	!
=132	=132	=132	=132	=132	=132	=132	=132
1C	-men-	1G	-men-	1e	-men-	1cc	-men-
2C/	-tum	2G/	-tum	2e\	-tum,	2cc\	-tum
!	!	!LO:LB:g=original	!	!	!	!LO:LB:g=original	!
=133	=133	=133	=133	=133	=133	=133	=133
2r	.	2r	.	2r	.	2r	.
2AA/	sen-	2A/	sen-	2e\	sen-	2cc\	sen-
2BB/	-su-	2G/	-su-	2g\	-su-	2dd\	-su-
=134	=134	=134	=134	=134	=134	=134	=134
1C	-um	1c	-um	1g	-um	1ee	-um
2BB/	de-	2G/	de-	2g\	de-	[<2dd\	de-
=135	=135	=135	=135	=135	=135	=135	=135
2C/	-fuc-	1G	-fuƈ-	1d	-fec-	2dd\]	.
2.D/	-tu-	.	.	.	.	2.a\	-fec-
.	.	2F#X/	-tu-	2d\	-tu-	.	.
4D/	-i	.	.	.	.	4a\	-tu-
!LO:LB:g=original	!	!	!	!	!	!	!
=136	=136	=136	=136	=136	=136	=136	=136
2GG/	.	2G/	-i	2d\	-i,	2b\	-i
!	!	!LO:TX:t=P:problem:późniejsza korekta wysokości	!	!	!	!	!
2E\	sen-	2A/	sen-	2r	.	2cc\	sen-
!	!	!LO:TX:t=P:problem:późniejsza korekta wysokości	!	!	!	!	!
2F\	.	2G/	-su-	2r	.	2cc\	-su-
!	!	!LO:LB:g=original	!	!LO:LB:g=original	!	!LO:LB:g=original	!
=137	=137	=137	=137	=137	=137	=137	=137
1G	-su-	1G	-um	2r	.	2b\	-um
.	.	.	.	2d\	sen-	2dd\	Sen-
2C/	-um	2G/	de-	2e\	-su-	2b\	-su-
=138	=138	=138	=138	=138	=138	=138	=138
1.GG	fuc-	[1G	-feƈ-	1d	-um	1b	-um
.	.	2G/]	.	2e\	de-	[<2cc\	de-
=139	=139	=139	=139	=139	=139	=139	=139
1GG	.	1.G	-tu-	(2e\	-feƈ-	2cc\]	.
.	.	.	.	2d\)	.	2.cc\	-fec-
2GG/	-tu-	.	.	2d\	-tu-	.	.
.	.	.	.	.	.	4b\	-tu-
=140	=140	=140	=140	=140	=140	=140	=140
1.C	-i.	1.G	-i.	1.e	-i.	1.cc	-i.
!LO:PB:g=original	!	!LO:PB:g=original	!	!LO:PB:g=original	!	!LO:LB:g=original	!
=141||	=141||	=141||	=141||	=141||	=141||	=141||	=141||
!LO:TX:a:B:t=6	!	!LO:TX:a:B:t=6	!	!LO:TX:a:B:t=6.	!	!LO:TX:a:B:t=6	!
1C	Ge-	1e	Ge-	1g	Ge-	1cc	Ge-
2C/	-ni-	2e\	-ni-	2g\	-ni-	2cc\	-ni-
=142	=142	=142	=142	=142	=142	=142	=142
1G	-to-	1d	-to-	1g	-to-	1b	-to-
2G\	-ri,	2d\	-ri,	2g\	-ri,	2b\	-ri
=143	=143	=143	=143	=143	=143	=143	=143
2r	.	2r	.	2r	.	2r	.
2A\	ge-	2c\	ge-	2e\	Ge-	2cc\	Ge-
2E\	-ni-	2B\	-ni-	2e\	-ni-	2g#X\	-ni-
=144	=144	=144	=144	=144	=144	=144	=144
1.F	-to-	1.A	-to-	(2e\	-to-	1.a	-to-
.	.	.	.	1d)	.	.	.
!LO:LB:g=original	!	!LO:LB:g=original	!	!LO:LB:g=original	!	!LO:LB:g=original	!
=145	=145	=145	=145	=145	=145	=145	=145
2E\	-que,	2B\	-que,	2e\	-que	2g#X\	-quae
2E\	la-	2B\	la-	2e\	laus	2gn\	laus
!	!	!	!	!LO:TX:t=P:problem:późniejsza korekta wysokości	!	!	!
2D\	-us	2d\	-us	2e\	et	2b\	et
=146	=146	=146	=146	=146	=146	=146	=146
2.C/	et	(2.e\	et	(2.g\	Ju-	1.cc	Ju-
4D/	Ju-	4d\)	.	4f\)	.	.	.
2E\	-bi-	2c\	Ju-	2e\	-bi-	.	.
=147	=147	=147	=147	=147	=147	=147	=147
2F\	-la-	2d\	-bi,-	2a\	-la-	2cc\	-bi-
2G\	-ti-	2.d\	-la	2.g\	-ti-	2cc\	-la-
2GG/	-o	.	.	.	.	2b\	-ti-
.	.	4d\	li-	4f\	.	.	.
!LO:LB:g=original	!	!LO:LB:g=original	!	!	!	!	!
=148	=148	=148	=148	=148	=148	=148	=148
2C/	.	2c\	-o,	2e\	-o,	2cc\	-o
2C/	Sa-	2c\	Sa-	2g\	Sa-	2ee\	Sa-
2c\	-lus	2c\	-lus	2g\	-lus	2ee\	-lus
!	!	!	!	!LO:LB:g=original	!	!LO:LB:g=original	!
=149	=149	=149	=149	=149	=149	=149	=149
1G#X	ho-	1B	ho-	1e	ho-	1b	ho-
2G#\	-nor	2B\	-nor	2e\	-nor	2b\	-nor
=150	=150	=150	=150	=150	=150	=150	=150
1A	vir-	(2c\	vir-	1e	Vir-	(2a\	Vir-
.	.	2B\)	.	.	.	2b\)	.
2AA/	-tus	2A\	-tus	2f#X\	-tus	2cc\	-tus
=151	=151	=151	=151	=151	=151	=151	=151
1E	quo-	1B	quo-	1g#X	quo-	1b	quo-
2E\	-que	2B\	-que,	2g#\	-que,	2b\	-que
!LO:LB:g=original	!	!LO:LB:g=original	!	!	!	!	!
=152	=152	=152	=152	=152	=152	=152	=152
2r	.	2r	.	2r	.	2r	.
2E\	sit	2B\	sit	2e\	Sit	2g\	Sit
2E\	et	2d\	et	2fn\	et	2b\	et
!	!	!	!	!LO:LB:g=original	!	!LO:LB:g=original	!
=153	=153	=153	=153	=153	=153	=153	=153
1C	Be-	1G	Be-	(1e	Be-	1cc	Be-
[<2F\	-ne-	2A/	-ne-	2f\)	.	2dd\	-ne-
=154	=154	=154	=154	=154	=154	=154	=154
2F\]	.	2A/	-diƈ-	2d\	-ne-	2dd\	-diƈ-
2.E\	-dic-	2.A/	-ti-	2.e\	-diƈ-	2.b\	-ti-
4E\	-ti-	4G#X/	.	4e\	-ti-	4b\	-o
!LO:LB:g=original	!	!	!	!	!	!	!
=155	=155	=155	=155	=155	=155	=155	=155
2AA/	-o,	2A\	-o	2e\	-o,	2a\	Pro-
2A\	Pro-	2A\	Pro-	2e\	Pro-	2cc\	-ƈe-
2G#X\	-ƈe-	2B\	-ƈe-	2e\	-ƈe-	2b\	-den-
!	!	!LO:LB:g=original	!	!	!	!	!
=156	=156	=156	=156	=156	=156	=156	=156
1A	-den-	1c	-den-	1e	-den-	1a	-ti
2E\	-ti	2B\	-ti,	2e\	-ti	2g#X\	.
!	!	!	!	!LO:LB:g=original	!	!LO:LB:g=original	!
=157	=157	=157	=157	=157	=157	=157	=157
2r	.	2r	.	2r	.	2r	.
2A\	Pro-	2c\	Pro-	2e\	Pro-	2a\	Pro-
2G#X\	-ƈe-	2B\	-ƈe-	2e\	-ƈe-	2b\	-ƈe-
=158	=158	=158	=158	=158	=158	=158	=158
1A	-den-	1c	-den-	1e	-den-	1a	-den-
2E\	-ti	2B\	-ti,	2e\	-ti,	2g#X\	-ti
!LO:LB:g=original	!	!	!	!	!	!	!
=159	=159	=159	=159	=159	=159	=159	=159
2r	.	1A	ab	2r	.	2r	.
2F\	a-	.	.	2c\	ab	2a\	ab
2D\	-bu-	2G/	u-	2f\	u-	2b\	a-
!	!	!LO:LB:g=original	!	!	!	!	!
=160	=160	=160	=160	=160	=160	=160	=160
1C	-tro-	1G	-tro-	1e	-tro-	1cc	-tro-
2C/	-que	2G/	-que	2e\	-que	2cc\	-que
!	!	!	!	!LO:LB:g=original	!	!LO:LB:g=original	!
=161	=161	=161	=161	=161	=161	=161	=161
2r	.	2r	.	2r	.	2r	.
2AA/	Com-	2A/	Com-	2e\	Com-	2cc\	Com-
2BB/	-par-	2G/	-par-	2g\	-par-	2dd\	-par-
=162	=162	=162	=162	=162	=162	=162	=162
1C	-sit	1c	-sit	1g	-sit	1ee	-sit
2BB/	lau-	2G/	lau-	2g\	lau-	[<2dd\	Lau-
!LO:LB:g=original	!	!	!	!	!	!	!
=163	=163	=163	=163	=163	=163	=163	=163
2C/	-da-	1G	-da-	1d	-da-	2dd\]	.
2.D/	-ti-	.	.	.	.	2.a\	-da-
.	.	2F#X/	-ti-	2d\	-ti-	.	.
4D/	.	.	.	.	.	4a\	-ti-
!	!	!LO:LB:g=original	!	!	!	!LO:LB:g=original	!
=164	=164	=164	=164	=164	=164	=164	=164
2GG/	-o	2G/	-o,	2d\	-o,	2b\	-o
!	!	!LO:TX:t=P:problem:późniejsza korekta wysokości	!	!	!	!	!
2E\	Com-	2A/	Com-	2r	.	2cc\	Com-
!	!	!LO:TX:t=P:problem:późniejsza korekta wysokości	!	!	!	!	!
2F\	-par-	2G/	-par-	2r	.	2cc\	-par-
!	!	!	!	!LO:LB:g=original	!	!	!
=165	=165	=165	=165	=165	=165	=165	=165
!LO:N:vis=2	!	!	!	!	!	!	!
1G	-sit	1G	-sit	2r	.	2b\	-sit
.	.	.	.	2d\	Ƈom-	2dd\	Com-
2C/	lau-	2G/	lau-	2e\	-par-	2b\	-par-
=166	=166	=166	=166	=166	=166	=166	=166
1.GG	-da-	[1G	-da-	1d	-sit	1b	-sit
.	.	2G/]	.	2e\	lau-	[<2cc\	lau-
!LO:LB:g=original	!	!	!	!	!	!LO:LB:g=original	!
=167	=167	=167	=167	=167	=167	=167	=167
1GG	.	1.G	-ti-	(2e\	-da-	2cc\]	.
.	.	.	.	2d\)	.	2.cc\	-da-
2GG/	-ti-	.	.	2d\	-ti-	.	.
.	.	.	.	.	.	4b\	-ti-
!	!	!LO:LB:g=original	!	!LO:LB:g=original	!	!	!
=168	=168	=168	=168	=168	=168	=168	=168
1.C	-o.	1.G	-o,	1.e	-o.	1.cc	-o.
=||	=||	=||	=||	=||	=||	=||	=||
*-	*-	*-	*-	*-	*-	*-	*-
!!!system-decoration: [g1]
!!!RDF**kern: < = below
!!!ENC: Marta Lawrence
!!!END: 2021-01-02
!!!ENC: Mateusz Solarz
!!!END: 2020-12-30
